X:1
T:Hobble the Boutches -- Reel
R:reel
B:Ryan's Mammoth Collection
N: 301
Z: Contributed by Ray Davies,  ray:davies99.freeserve.co.uk
M:C|
L:1/8
K:C
vc2(GE) c2(GE) | D"4"edc BGAB | cd"4"ed cBcA | GcGE GcGE |
 c2(GE) c2(GE) | D"4"edc BGAB | cd"4"ed cBcA | GAGE Gcc2 :|
|:vg2"0"(eg) cg"0"(eg) | a2(fa) da(fa) | g2(eg) cg(eg) | \
fa(gf) "0"(ec)c2 |
vg2(eg) cg(eg) | a2(fa) da(fa) | gfed cBcA | Gagf (ec)c2 :|
